X:1
T:Meschach, 10.8.10.8.10.10.10.8
T:Meschach, 10.8.10.8.10.10.10.8
T:Benjamin Carl Unseld, 1901
T:Public Domain Courtesy of the Cyber Hymnal™
C:Benjamin Carl Unseld, 1901
Z:Public Domain
Z:Courtesy of the Cyber Hymnal™
%%score ( 1 2 ) ( 3 4 )
L:1/8
Q:1/4=95
M:6/8
K:F
V:1 treble 
V:2 treble 
V:3 bass 
V:4 bass 
V:1
 [FA][FA][FA] [FA]F[FA] | [Fd][Fd][Fc] [FA]3 | [EG][EG][EG] [GB][FA][EG] | [FA]3 [Fc]3 | %4
 [FA][FA][FA] [FA]F[FA] | [Fc][Fd][Fc] [FA]3 | [EG][EG][EG] [EG][Ec][Ge] | [Fd]3 [Ec]3 | %8
 [Fc][Fc][Fc] [Fc][FA][Fc] | [Ff][Fe][Fd] [Fc]3 | [GB][GB][GB] [GB][FA][GB] | [Bd][Ac][GB] [FA]3 | %12
 [Ac][Ac][Ac] [Ac][FA][Ac] | [Af][Ge][F_e] [Fd]3 | [^Gd][Ge][Gf] [Ac][FA]F | [EG]3 F3 |] %16
V:2
 x4 F x | x6 | x6 | x6 | x4 F x | x6 | x6 | x6 | x6 | x6 | x6 | x6 | x6 | x6 | x5 F | x3 F3 |] %16
V:3
 [F,C][F,C][F,C] [F,C][F,A,][F,C] | [F,A,][F,B,][F,A,] [F,C]3 | [C,C][C,C][C,C] [C,C][C,C][C,C] | %3
 [F,C]3 [F,A,]3 | [F,C][F,C][F,C] [F,C][F,A,][F,C] | [F,A,][F,B,][F,A,] [F,C]3 | %6
 [G,C][G,C][G,C] [G,C][G,C][G,C] | [G,=B,]3 [C,C]3 | [F,A,][F,A,][F,A,] [F,A,][F,C][F,A,] | %9
 [F,D][F,C][F,B,] [F,A,]3 | [C,C][C,C][C,C] [C,C][C,C][C,C] | [C,C][D,C][E,C] [F,C]3 | %12
 [F,C][F,C][F,C] [F,C][F,C][F,C] | [F,C][G,C][A,C] B,3 | [=B,F][B,E][B,D] C[C,C][C,A,] | %15
 [C,B,]3 [F,A,]3 |] %16
V:4
 x6 | x6 | x6 | x6 | x6 | x6 | x6 | x6 | x6 | x6 | x6 | x6 | x6 | x3 B,3 | x3 C x2 | x6 |] %16

